X:62
T:The Barmaid
N:Reel      Allan's   #62  pp16
N:Trad/Anon.
N:CONVERTED FROM NOTEWORTHY COMPOSER  (WWW.NOTEWORTHYSOFTWARE.COM) BY
N:ABC2NWC (HTTP://MEMBERS.AOL.COM/ABACUSMUSIC/), WITH
Z: (INTO NWC) VINCE BRENNAN 2002   (WWW.SOSYOURMOM.COM)
I:abc2nwc
M:2/2
L:1/8
K:D
E|:FAAB AFED|FAAB A2de|fBBA Bcde|fdef fdBA|
FAAB AFED|FAAB A2de|fdBc dedB|AFEF D3:|
|:g|faag fdde|fdad feef|gbba geef| ((3gfe) (be) geea|
fgaf b2(af)|defd e2(de)|fdBc dedB|AFEF D3:|
